omega/web/assets/images/sports/quasar-mosp.svg

<svg enable-background="new 0 0 512 512" fill="#830001" height="512" viewBox="0 0 512 512" width="512" xmlns="http://www.w3.org/2000/svg"><path d="m259.476 213.54c5.574 0 10.092-4.519 10.092-10.093 0-5.576-4.518-10.095-10.092-10.095-5.575 0-10.094 4.519-10.094 10.095 0 5.574 4.518 10.093 10.094 10.093"/><path d="m100.376 371.322c32.172-5.045 319.827-64.343 319.827-64.343s24.043-9.886 18.924-109.762c-7.217-90.221-213.015-195.644-314.148-36.587-13.505 21.238-39.056 115.713-47.403 160.025-9.37 55.716-9.37 55.716 22.8 50.667m133.024-66.098c-5.574 0-10.093-4.521-10.093-10.094 0-5.574 4.519-10.093 10.093-10.093 5.575 0 10.094 4.519 10.094 10.093 0 5.572-4.519 10.094-10.094 10.094m176.639-58.599c7.742 0 14.021 6.277 14.021 14.017 0 7.743-6.278 14.021-14.021 14.021s-14.021-6.277-14.021-14.021c.001-7.74 6.279-14.017 14.021-14.017m-279.255-57.758c60.561 2.243 97.545.484 154.77 0-30.47 53.243-60.563 95.329-188.416 107.665 12.008-47.666 20.275-75.847 33.646-107.665"/><path d="m246.861 198.389h16.821v350.496h-16.821z" transform="matrix(-.2031 -.9792 .9792 -.2031 -58.7208 699.4844)"/></svg>

<?xml version="1.0" encoding="utf-8"?>
<!-- Generator: Adobe Illustrator 14.0.0, SVG Export Plug-In . SVG Version: 6.00 Build 43363)  -->
<!DOCTYPE svg PUBLIC "-//W3C//DTD SVG 1.1//EN" "http://www.w3.org/Graphics/SVG/1.1/DTD/svg11.dtd">
<svg version="1.1" xmlns="http://www.w3.org/2000/svg" xmlns:xlink="http://www.w3.org/1999/xlink" x="0px" y="0px" width="512px"
	 height="512px" viewBox="0 0 512 512" enable-background="new 0 0 512 512" xml:space="preserve" fill="#830001">
<g id="Layer_1">
</g>
<g id="amfb">
	<g>
		<path d="M259.476,213.54c5.574,0,10.092-4.519,10.092-10.093c0-5.576-4.518-10.095-10.092-10.095
			c-5.575,0-10.094,4.519-10.094,10.095C249.382,209.021,253.9,213.54,259.476,213.54"/>
		<path d="M100.376,371.322c32.172-5.045,319.827-64.343,319.827-64.343s24.043-9.886,18.924-109.762
			C431.91,106.996,226.112,1.573,124.979,160.63c-13.505,21.238-39.056,115.713-47.403,160.025
			C68.206,376.371,68.206,376.371,100.376,371.322 M233.4,305.224c-5.574,0-10.093-4.521-10.093-10.094
			c0-5.574,4.519-10.093,10.093-10.093c5.575,0,10.094,4.519,10.094,10.093C243.494,300.702,238.975,305.224,233.4,305.224
			 M410.039,246.625c7.742,0,14.021,6.277,14.021,14.017c0,7.743-6.278,14.021-14.021,14.021s-14.021-6.277-14.021-14.021
			C396.019,252.902,402.297,246.625,410.039,246.625 M130.784,188.867c60.561,2.243,97.545,0.484,154.77,0
			c-30.47,53.243-60.563,95.329-188.416,107.665C109.146,248.866,117.413,220.685,130.784,188.867"/>
		
			<rect x="246.861" y="198.389" transform="matrix(-0.2031 -0.9792 0.9792 -0.2031 -58.7208 699.4844)" width="16.821" height="350.496"/>
	</g>
</g>
</svg>
